icon-themes/breeze_svg/cmd/sc_gallery.svg

<svg viewBox="0 0 16 16" xmlns="http://www.w3.org/2000/svg">/&amp;gt;<path d="m2 2v11.28125.71875h12v-1-1-1-1-8zm1 1h10v6 4h-10v-.71875zm3 1c-1.1045695 0-2 .8954305-2 2s.8954305 2 2 2 2-.8954305 2-2-.8954305-2-2-2zm0 1c.5522847 0 1 .4477153 1 1s-.4477153 1-1 1-1-.4477153-1-1 .4477153-1 1-1zm5 2-3.34375 3.34375-1.34375-1.34375h-.03125l-2.28125 2.28125v.71875h.78125l1.5-1.5h.03125l1.34375 1.34375 3.34375-3.34375 1 1v-1.5z" fill="#4d4d4d"/></svg>

<svg xmlns="http://www.w3.org/2000/svg" viewBox="0 0 16 16">
     />
 <path 
     style="fill:#4d4d4d" 
     d="M 2 2 L 2 13.28125 L 2 14 L 14 14 L 14 13 L 14 12 L 14 11 L 14 10 L 14 2 L 2 2 z M 3 3 L 13 3 L 13 9 L 11 7 L 7.65625 10.34375 L 6.3125 9 L 6.28125 9 L 3 12.28125 L 3 3 z M 6 4 C 4.8954305 4 4 4.8954305 4 6 C 4 7.1045695 4.8954305 8 6 8 C 7.1045695 8 8 7.1045695 8 6 C 8 4.8954305 7.1045695 4 6 4 z "
     />
 </svg>
